icons/issue-reopened-24.svg

<svg width="24" height="24" viewBox="0 0 24 24" fill="none" xmlns="http://www.w3.org/2000/svg">
<path d="M3.38045 8C4.89083 4.75092 8.18339 2.5 12 2.5C16.4465 2.5 20.1811 5.55546 21.2155 9.68234C21.3162 10.0841 21.7235 10.3282 22.1253 10.2275C22.5271 10.1268 22.7712 9.71945 22.6705 9.31766C21.4729 4.53939 17.1507 1 12 1C7.94757 1 4.40828 3.19117 2.5 6.45159V4.75C2.5 4.33579 2.16421 4 1.75 4C1.33579 4 1 4.33579 1 4.75V8.5C1 9.05228 1.44772 9.5 2 9.5H5.75C6.16421 9.5 6.5 9.16421 6.5 8.75C6.5 8.33579 6.16421 8 5.75 8H3.38045Z" fill="#24292E"/>
<path d="M2.78456 14.3177C2.68386 13.9159 2.27651 13.6718 1.87473 13.7725C1.47294 13.8732 1.22886 14.2806 1.32956 14.6823C2.52717 19.4606 6.84932 23 12 23C16.0524 23 19.5917 20.8089 21.5 17.5485V19.25C21.5 19.6642 21.8358 20 22.25 20C22.6642 20 23 19.6642 23 19.25V15.5C23 14.9477 22.5523 14.5 22 14.5H18.25C17.8358 14.5 17.5 14.8358 17.5 15.25C17.5 15.6642 17.8358 16 18.25 16H20.6196C19.1092 19.2491 15.8166 21.5 12 21.5C7.55358 21.5 3.8189 18.4445 2.78456 14.3177Z" fill="#24292E"/>
<path d="M13.4142 13.4142C13.0391 13.7893 12.5304 14 12 14C11.4696 14 10.9609 13.7893 10.5858 13.4142C10.2107 13.0391 10 12.5304 10 12C10 11.4696 10.2107 10.9609 10.5858 10.5858C10.9609 10.2107 11.4696 10 12 10C12.5304 10 13.0391 10.2107 13.4142 10.5858C13.7893 10.9609 14 11.4696 14 12C14 12.5304 13.7893 13.0391 13.4142 13.4142Z" fill="#24292E"/>
</svg>

<svg xmlns="http://www.w3.org/2000/svg" width="24" height="24" viewBox="0 0 24 24"><path d="M3.38 8A9.502 9.502 0 0112 2.5a9.502 9.502 0 019.215 7.182.75.75 0 101.456-.364C21.473 4.539 17.15 1 12 1a10.995 10.995 0 00-9.5 5.452V4.75a.75.75 0 00-1.5 0V8.5a1 1 0 001 1h3.75a.75.75 0 000-1.5H3.38zm-.595 6.318a.75.75 0 00-1.455.364C2.527 19.461 6.85 23 12 23c4.052 0 7.592-2.191 9.5-5.451v1.701a.75.75 0 001.5 0V15.5a1 1 0 00-1-1h-3.75a.75.75 0 000 1.5h2.37A9.502 9.502 0 0112 21.5c-4.446 0-8.181-3.055-9.215-7.182z"/><path d="M13.414 13.414a2 2 0 11-2.828-2.828 2 2 0 012.828 2.828z"/></svg>
